X: 1
T: Hora Or [Dm]
O: Israel
M: 4/4
L: 1/8
Z: John Chambers <jc@trillian.mit.edu>
K: Dm
%%indent 300
"^Intro"[|]y2\
|"C"c2G c2B A2 | "A7"A>A =B^c "Dm"d2d2 ||
[| "Dm"ff dA2 f (3fed | "Gm"B (3BAG B2 B "A"^c2 | "Dm"d2 A d2 c (3cBA | "C"c (3BAG c2 B "A"A2 |
|  "Dm"ff dA2 f (3fed | "Gm"B (3BAG B2 B "A"^c2 | "Dm"d (3dcA A2 c (3cBA | "A7"A>A =B^c "Dm"d2d2 ||
|| "C"e2 g e2 g "Bb"(3fed | "C"e2 g e2 g "Gm"(3gfe | "C"e2 g e2 g "Bb"(3fed | "C"e>d cd eG e2 |
|  "C"e2 g e2 g "Bb"(3fed | "C"e2 g e2 g "Gm"(3gfe | "C"e2 g e2 g "Bb"(3fed | "E"e>d ^c=B "A"A2 A2 ||
|| "Dm"d2 A d2 c (3cBA | "C"c (3cBG c2 B A2 | "Bb"B2 F B2 A (3AGF | "A"A2 BA BA A/B/^c/d/ |
|  "Dm"d2 A d2 c (3cBA | "C"c (3cBG c2 B A2 | "Bb"B2 F B2 A (3AGF | "A"A>A =B^c "Dm"d2d2 |]

%%sep 1 1 500

